X:106
T: Prozessionslied (2-8) S. 33
N: P0881
O: Lothringen
S: PINCK, Louis: Verklingende Weisen, Bd 2, Metz 1928]
R: geistliche, religise Lieder]
M: 4/4
L: 1/16
K: F
C4 | F4F2G2A4A2B2 | c3dc2B2A2G2F4 |
B6c2A2F2F4 | E4F4G4
C4 | F4F2G2A4A2B2 | c3dc2B2A2G2F4 |
B6c2A2G2F2F2 | E4F2A2G4
F4 | A4G2G2F4C2A2 | c3dc2B2A2G2
F4 | A3GA2B2c2d2c2B2 | A4G2G2F4

@@@ Tune index: 7656
